X:95
T:James Byrne's Jig
R:Jig
Z:From a tape of James Byrne in 1987
M:6/8
K:D
[F2D2][DD] [DD][ED][DD]|[F2D2][DD] [DD][ED][FD]|[E2A,2][EA,] [EA,][CA,][EA,]|
E[CA,][EA,] [EA,][CA,]E|[F2D2]D DED|FED DFA|Bcd edc|1 dec dAG:|2 d3 d2e||
.f/.a/.fd def|gfg egf|ecA ABA|ecA Ace|
{fa}f2d def|gfg egf|ecA ABc|1 dec deg:|2 .d/.d/.dB .A/.A/.AG||
